icons/tapcart.svg

<?xml version="1.0" encoding="UTF-8"?>
<svg width="256px" height="255px" viewBox="0 0 256 255" version="1.1" xmlns="http://www.w3.org/2000/svg" xmlns:xlink="http://www.w3.org/1999/xlink" preserveAspectRatio="xMidYMid">
    <g>
        <path d="M219.550193,36.1989629 C170.936964,-12.0808297 91.8929833,-12.0518101 43.3067284,36.1989629 L2.74288122,76.4849543 C-0.91429374,80.1168766 -0.91429374,86.0703723 2.74288122,89.7045274 C6.40679957,93.3431472 12.4039372,93.3431472 16.0611121,89.7067597 L56.6272071,49.4230008 C97.8878728,8.4472345 165.000518,8.47402189 206.231962,49.4230008 C247.492628,90.3965351 247.465655,157.043543 206.231962,197.994754 L165.665867,238.280745 C162.006444,241.912668 162.006444,247.868396 165.674858,251.509248 C169.329785,255.138938 175.326923,255.138938 178.984098,251.509248 L219.550193,211.221025 C268.136448,162.974716 268.163422,84.4787559 219.550193,36.1989629 M172.318819,83.773233 C145.008713,56.8064381 100.60752,56.82871 73.3177127,83.784369 L18.5621797,137.853818 C14.8836941,141.493044 14.8836941,147.430727 18.5554136,151.054362 C22.2316439,154.686906 28.2489337,154.686906 31.9251639,151.054362 L86.6806965,96.9849138 C106.615788,77.2965698 139.022998,77.2921152 158.953579,96.9782325 C178.888671,116.662122 178.879649,148.662362 158.946813,168.348479 L104.19128,222.422382 C100.51505,226.052699 100.51505,231.99261 104.19128,235.625154 C107.860745,239.248789 113.875779,239.248789 117.554265,235.618472 L172.309797,181.546797 C199.60186,154.591137 199.628924,110.744483 172.318819,83.773233 M117.349847,139.400643 C113.703294,135.733873 107.736817,135.733873 104.096975,139.391645 L56.4591161,187.298102 C52.8170369,190.960373 52.8170369,196.957678 56.4658275,200.626697 C60.112381,204.302465 66.0766212,204.302465 69.7187003,200.640194 L117.361033,152.731487 C121.027721,149.039972 120.998638,143.069662 117.349847,139.400643" fill="#373AAF"></path>
    </g>
</svg>

<svg xmlns="http://www.w3.org/2000/svg" viewBox="0 0 256 254.232">
  <path fill="#373aaf" d="M219.55 36.199c-48.613-48.28-127.657-48.25-176.243 0L2.743 76.485c-3.657 3.632-3.657 9.585 0 13.22 3.664 3.638 9.66 3.638 13.318.002l40.566-40.284c41.26-40.976 108.374-40.949 149.605 0 41.26 40.974 41.234 107.62 0 148.572l-40.566 40.286c-3.66 3.632-3.66 9.587.009 13.228 3.655 3.63 9.652 3.63 13.31 0l40.565-40.288c48.586-48.246 48.613-126.742 0-175.022M172.32 83.773c-27.31-26.967-71.711-26.944-99.001.011l-54.756 54.07c-3.678 3.639-3.678 9.577-.007 13.2 3.677 3.633 9.694 3.633 13.37 0l54.756-54.07c19.935-19.687 52.342-19.692 72.273-.006 19.935 19.684 19.926 51.684-.007 71.37l-54.756 54.074c-3.676 3.63-3.676 9.57 0 13.203 3.67 3.624 9.685 3.624 13.363-.007l54.756-54.071c27.292-26.956 27.319-70.803.009-97.774m-54.97 55.628c-3.646-3.667-9.612-3.667-13.252-.01l-47.638 47.907c-3.642 3.662-3.642 9.66.007 13.329 3.646 3.675 9.61 3.675 13.253.013l47.642-47.908c3.667-3.692 3.638-9.662-.011-13.331"/>
</svg>
